X:163
T: DIE FENSTER AUF DIE HERZEN AUF
N: B0195
O: Europa, Mitteleuropa, Deutschland
R: Jahreszeiten - Lied, Fruehling
M: 2/4
L: 1/16
K: C
G,2 | G,3E,E,2C2 | C3G,G,2E2 | D8 | C4z2
C2 | B,2A,2G,2A,2 | G,2F,2E,2
C2 | B,2A,2G,2A,2 | G,4F,4 | E,4z2
E,2 | F,2E,2F,2G,2 | A,2B,2C2
C2 | A,2A,2G,2C2 | E4D4 | C4z2

@@@ Tune index: 1966
